usr/share/themes/Ubuntu-Cinnamon/cinnamon/common-assets/misc/add-workspace-active.svg

<svg version="1.1" viewBox="0 0 39 200" xmlns="http://www.w3.org/2000/svg">
 <path d="m3 0c-1.662 0-3 1.338-3 3v194c0 1.662 1.338 3 3 3h33c1.662 0 3-1.338 3-3v-194c0-1.662-1.338-3-3-3h-33zm0 1h33c1.108 0 2 0.892 2 2v194c0 1.108-0.892 2-2 2h-33c-1.108 0-2-0.892-2-2v-194c0-1.108 0.892-2 2-2z" fill="#f7f7f7"/>
 <rect x="1" y="1" width="37" height="198" rx="2" ry="2" fill="#f7f7f7"/>
 <rect x="18.5" y="92" width="2" height="16" ry="1.2" fill="#fff"/>
 <rect x="11.5" y="99" width="16" height="2" ry="1.2" fill="#fff"/>
</svg>

<?xml version="1.0" encoding="UTF-8" standalone="no"?>
<!-- Created with Inkscape (http://www.inkscape.org/) -->

<svg
   xmlns:dc="http://purl.org/dc/elements/1.1/"
   xmlns:cc="http://creativecommons.org/ns#"
   xmlns:rdf="http://www.w3.org/1999/02/22-rdf-syntax-ns#"
   xmlns:svg="http://www.w3.org/2000/svg"
   xmlns="http://www.w3.org/2000/svg"
   xmlns:sodipodi="http://sodipodi.sourceforge.net/DTD/sodipodi-0.dtd"
   xmlns:inkscape="http://www.inkscape.org/namespaces/inkscape"
   width="35"
   height="200"
   id="svg2"
   version="1.1"
   inkscape:version="0.91 r13725"
   sodipodi:docname="add-workspace-active.svg">
  <defs
     id="defs4" />
  <sodipodi:namedview
     id="base"
     pagecolor="#ffffff"
     bordercolor="#666666"
     borderopacity="1.0"
     inkscape:pageopacity="0.0"
     inkscape:pageshadow="2"
     inkscape:zoom="16"
     inkscape:cx="7.0289763"
     inkscape:cy="105.84046"
     inkscape:document-units="px"
     inkscape:current-layer="layer1"
     showgrid="true"
     inkscape:window-width="1920"
     inkscape:window-height="1030"
     inkscape:window-x="1920"
     inkscape:window-y="0"
     inkscape:window-maximized="1"
     showguides="true"
     inkscape:guide-bbox="true"
     inkscape:snap-bbox="true"
     inkscape:bbox-paths="true"
     inkscape:snap-bbox-edge-midpoints="true"
     inkscape:bbox-nodes="true">
    <inkscape:grid
       type="xygrid"
       id="grid3040"
       empspacing="5"
       visible="true"
       enabled="true"
       snapvisiblegridlinesonly="true" />
    <sodipodi:guide
       orientation="0,1"
       position="20,100"
       id="guide3893" />
    <sodipodi:guide
       orientation="1,0"
       position="18,190"
       id="guide3895" />
  </sodipodi:namedview>
  <metadata
     id="metadata7">
    <rdf:RDF>
      <cc:Work
         rdf:about="">
        <dc:format>image/svg+xml</dc:format>
        <dc:type
           rdf:resource="http://purl.org/dc/dcmitype/StillImage" />
        <dc:title />
      </cc:Work>
    </rdf:RDF>
  </metadata>
  <g
     inkscape:label="Ebene 1"
     inkscape:groupmode="layer"
     id="layer1"
     transform="translate(0,-852.36218)">
    <path
       style="opacity:1;fill:#8f8f8f;fill-opacity:1;stroke:#102b68;stroke-width:0;stroke-linecap:butt;stroke-linejoin:miter;stroke-miterlimit:4;stroke-opacity:1;stroke-dasharray:none;stroke-dashoffset:0"
       d="M 3 0 C 1.3380015 0 0 1.3380015 0 3 L 0 197 C 0 198.662 1.3380015 200 3 200 L 36 200 C 37.661999 200 39 198.662 39 197 L 39 3 C 39 1.3380015 37.661999 0 36 0 L 3 0 z M 3 1 L 36 1 C 37.108 1 38 1.892 38 3 L 38 197 C 38 198.108 37.108 199 36 199 L 3 199 C 1.892 199 1 198.108 1 197 L 1 3 C 1 1.892 1.892 1 3 1 z "
       transform="translate(0,852.36218)"
       id="rect3810" />
    <g
       transform="translate(0,-0.9999969)"
       id="g3917-7"
       style="fill:#000000;fill-opacity:1;opacity:0.5" />
    <rect
       rx="2"
       style="opacity:1;fill:#8f8f8f;fill-opacity:1;stroke:#102b68;stroke-width:0;stroke-linecap:butt;stroke-linejoin:miter;stroke-miterlimit:4;stroke-dasharray:none;stroke-dashoffset:0;stroke-opacity:1"
       id="rect3812"
       width="37"
       height="198"
       x="1.000005"
       y="853.36218"
       ry="2" />
    <g
       id="g3917"
       style="fill:#ffffff;fill-opacity:1">
      <rect
         ry="1.1428567"
         y="944.36218"
         x="17"
         height="15.999994"
         width="2.0000002"
         id="rect3897"
         style="opacity:1;fill:#ffffff;fill-opacity:1;stroke:#102b68;stroke-width:0;stroke-linecap:butt;stroke-linejoin:miter;stroke-miterlimit:4;stroke-opacity:1;stroke-dasharray:none;stroke-dashoffset:0" />
      <rect
         transform="matrix(0,1,-1,0,0,0)"
         ry="1.1428567"
         y="-26"
         x="951.36218"
         height="15.999994"
         width="2.0000002"
         id="rect3897-6"
         style="opacity:1;fill:#ffffff;fill-opacity:1;stroke:#102b68;stroke-width:0;stroke-linecap:butt;stroke-linejoin:miter;stroke-miterlimit:4;stroke-opacity:1;stroke-dasharray:none;stroke-dashoffset:0" />
    </g>
  </g>
</svg>
